X: 1654
T: the Star Hornpipe   #2
%S: s:4 b:16(4+4+4+4)
B: O'Neill's 1850 #1654
O: J.O'Neill
Z: The key signature is at odds with the c sharps in the original. Key should be G?
M: 2/4
L: 1/16
K: D
(Bc) \
| d^cdf gecA | GFGB D2(EF) |[1,3 GFGA BABc | dcdf A2 :|[2,4 Gedc BAGF | A2G2G2 :|
|: (cB) \
| A^GAB cBcd | e^def g2g-f | edcB cBAG | F2D2 D2(Bc) ||
| d^cdf gecA | GFGB D2(EF) | Gedc BAGF | A2G2 G2 :|

